X:117
T:Charlie Stewart
T:Welcome Charlie Stuart
R:Reel
B:The Athole Collection
M:C|
L:1/8
K:D
B|AFED G3B|AFED E3B|AFED GABd|AGFE D2D:|
A|defd gfec|defd ecBA|defd gfeg|f/g/a ef d3A|defd gfec|
defa ecBA|defd gfeg|faef d2d||

